docs/.gitbook/assets/chain-icons/sui.svg

<svg width="160" height="160" viewBox="0 0 110 160" fill="none" xmlns="http://www.w3.org/2000/svg">
<path fill-rule="evenodd" clip-rule="evenodd" d="M7.44427 132.216C17.37 149.615 35.1486 160 55 160C74.8514 160 92.6267 149.615 102.556 132.216C112.481 114.822 112.481 94.0509 102.556 76.6528L60.7295 3.34723C58.183 -1.11575 51.817 -1.11574 49.2705 3.34724L7.44427 76.6528C-2.48142 94.0475 -2.48142 114.818 7.44427 132.216ZM43.2175 38.2219L52.1352 22.592C53.4085 20.3604 56.5916 20.3604 57.8648 22.592L92.172 82.7217C98.4749 93.7681 99.658 106.553 95.7213 118.253C95.3113 116.344 94.7385 114.391 93.9661 112.418C89.2273 100.317 78.5124 90.979 62.113 84.6613C50.8379 80.3336 43.641 73.9686 40.7166 65.7422C36.9499 55.1391 40.8841 43.5766 43.2175 38.2219ZM28.0112 64.8737L17.828 82.7217C10.0686 96.3208 10.0686 112.555 17.828 126.154C25.5873 139.754 39.4813 147.869 55 147.869C65.3072 147.869 74.9003 144.286 82.4542 137.894C83.4394 135.385 86.4901 126.198 82.7212 116.729C79.2401 107.986 70.8627 101.006 57.8203 95.979C43.0776 90.3201 33.4995 81.4856 29.3577 69.7287C28.7872 68.11 28.344 66.4879 28.0112 64.8737Z" fill="#6FBCF0"/>
</svg>

<svg xmlns="http://www.w3.org/2000/svg" width="160" height="160" fill="none" viewBox="0 0 110 160"><path fill="#6FBCF0" fill-rule="evenodd" d="M7.444 132.216C17.37 149.615 35.15 160 55 160s37.627-10.385 47.556-27.784c9.925-17.394 9.925-38.165 0-55.563L60.73 3.347c-2.547-4.463-8.913-4.463-11.46 0L7.444 76.653c-9.925 17.394-9.925 38.165 0 55.563Zm35.773-93.994 8.918-15.63c1.273-2.232 4.457-2.232 5.73 0l34.307 60.13c6.303 11.046 7.486 23.831 3.55 35.531a37.708 37.708 0 0 0-1.756-5.835c-4.739-12.101-15.454-21.439-31.853-27.757-11.275-4.327-18.472-10.692-21.396-18.919-3.767-10.603.167-22.165 2.5-27.52ZM28.012 64.874 17.828 82.722c-7.76 13.599-7.76 29.833 0 43.432 7.76 13.6 21.653 21.715 37.172 21.715 10.307 0 19.9-3.583 27.454-9.975.985-2.509 4.036-11.696.267-21.165-3.48-8.743-11.858-15.723-24.9-20.75-14.743-5.659-24.322-14.493-28.463-26.25a37.174 37.174 0 0 1-1.347-4.855Z" clip-rule="evenodd"/></svg>
